X: 1
T:Lady Montgomery
M:C|
L:1/8
K:D
~F3A AFDE|F2EG FDDE|~F3A AFDE|1 FDEC D2DE:|2 F2EF D3c|
!d2AG FGAB|A2ed cdec|d2AG FGAB|AFGE FDDA|
!d2AG FGAB|A2ed cdec|d2AG ~F3G|AFGE FDDE||
